X: 203
T: Dumbartons Drums
%R: reel
B: "The Compleat Country Dancing-Master" printed by John Walsh, London ca. 1740
S: 6: CCDM2 http://imslp.org/wiki/The_Compleat_Country_Dancing-Master_(Various) V.2 (70)
Z: 2013 John Chambers <jc:trillian.mit.edu>
M: C|
L: 1/8
K: F
% - - - - - - - - - - - - - - - - - - - - - - - - -
FG |\
A3c AcGA | F2c2 (c2BA) | (GF)(GA) (BA)(GF) | D2d2 d2cd |\
f3g (ag)(fd) | (cA)(cd) f3F | GA fe (cA)(GF) | D2d2 d2 |]
cd |\
f3g (fg)(ag) | f2a2 a2gf | (gf)(ga) (ba)(gf) | d2g2 g2(fd) |\
(cd)(fg) (ag)(fd) | (cA)(cd) f3g | (ag)(fd) (cA)(GF) | D2 d4 |]
% - - - - - - - - - - - - - - - - - - - - - - - - -
%%begintext align
%% The 1st Cu. lead thro the 2d Cu. and cast off, and turn, then the
%% 1st Wo. turn the 2d Man, then Cross over below the 2d Cu.
%% Then below the 3d Cu. and lead thro both Cu. and cast off,
%% We. fall back and Men follow them and turn S. Men fall
%% back We. follow and turn S. clap hands sides, clap hands
%% with your Partners and cast off.
%%endtext
%%sep 1 8 500

%%sep 1 1 500
%%sep 1 1 500
